X: 5207
T: Farewell to Balfour Road
P: Miss Ogilvy of Islabank's Jigg
C: Charles Duff's Collection (1792)
%date 1792
S: RSCDS 52-07
R: jig
Z: 2019 John Chambers <jc:trillian.mit.edu>
M: 6/8
L: 1/8
K: A
|: c/B/ |\
"A"ABA ECE | "A"ABA "C#/A7"ABc | "D"def "Bm"fdc | "E"dBB "G#/E7"B2c/B/ |\
"A"ABA ECE | "A"ABA "F#m"ABc | "D"def "E7"efd | "A"cAA A2 :|
c/d/ |\
"A"efe "C#/A7"efg | "D"agf "C#/A"edc | "D"dfd "A"cec | "Bm"fdB "E7"B2c/d/ |\
"A"efe "G#/E7"efg | "A"agf "F#m"edc | "D"def "E7"efg | "A"aAA A2 ||
"E7"c/d/ |\
"A"efe "C#/A7"efg | "D"agf "C#/A"edc | "D"dfd "A"cec | "Bm"fdB "E7"B2c/B/ |\
"A"ABA "C#m"ECE | "F#m"ABA "E/A7"ABc | "D"def "E7"efd | "A"cAA A2 |]
